Facilitet_punkt_5800_Piktogrammer/Cirkel/SVG/LOKAL-SOGNEARKIV.svg

<svg xmlns="http://www.w3.org/2000/svg" width="5.5mm" height="5.5mm" viewBox="0 0 15.591 15.591">
  <rect width="15.591" height="15.591" rx="7.795" fill="#031E3A"/>
  <g>
    <path d="M6.382,3.361,4.142,2.9a.229.229,0,0,0-.27.178l-1.79,8.737a.228.228,0,0,0,.178.27l2.24.459a.229.229,0,0,0,.27-.178L6.56,3.631A.229.229,0,0,0,6.382,3.361ZM4.373,10.886a.686.686,0,1,1-.534-.81A.685.685,0,0,1,4.373,10.886ZM5.883,4.66,5.148,8.244a.228.228,0,0,1-.27.178L3.534,8.147a.23.23,0,0,1-.178-.271L4.09,4.292a.23.23,0,0,1,.27-.178l1.345.276A.229.229,0,0,1,5.883,4.66Z" fill="#fff"/>
    <rect x="4.666" y="4.238" width="0.457" height="1.373" rx="0.182" transform="translate(-0.912 8.731) rotate(-78.42)" fill="#fff"/>
    <rect x="4.528" y="4.91" width="0.457" height="1.373" rx="0.182" transform="translate(-1.68 9.134) rotate(-78.425)" fill="#fff"/>
    <rect x="4.391" y="5.582" width="0.457" height="1.373" rx="0.182" transform="translate(-2.449 9.535) rotate(-78.416)" fill="#fff"/>
    <path d="M9.459,3.175H7.172a.229.229,0,0,0-.228.229v8.918a.228.228,0,0,0,.228.228H9.459a.229.229,0,0,0,.229-.228V3.4A.23.23,0,0,0,9.459,3.175ZM8.316,11.636A.686.686,0,1,1,9,10.95.686.686,0,0,1,8.316,11.636Zm.915-3.43A.23.23,0,0,1,9,8.435H7.63A.23.23,0,0,1,7.4,8.206V4.547a.23.23,0,0,1,.229-.229H9a.23.23,0,0,1,.229.229Z" fill="#fff"/>
    <rect x="7.63" y="4.776" width="1.372" height="0.457" rx="0.182" fill="#fff"/>
    <rect x="7.63" y="5.462" width="1.372" height="0.457" rx="0.182" fill="#fff"/>
    <rect x="7.63" y="6.148" width="1.372" height="0.457" rx="0.182" fill="#fff"/>
    <path d="M12.661,3.175H10.374a.229.229,0,0,0-.229.229v8.918a.228.228,0,0,0,.229.228h2.287a.228.228,0,0,0,.228-.228V3.4A.229.229,0,0,0,12.661,3.175Zm-1.144,8.461a.686.686,0,1,1,.686-.686A.686.686,0,0,1,11.517,11.636Zm.915-3.43a.23.23,0,0,1-.229.229H10.831a.23.23,0,0,1-.229-.229V4.547a.23.23,0,0,1,.229-.229H12.2a.23.23,0,0,1,.229.229Z" fill="#fff"/>
    <rect x="10.841" y="4.776" width="1.372" height="0.457" rx="0.182" fill="#fff"/>
    <rect x="10.841" y="5.462" width="1.372" height="0.457" rx="0.182" fill="#fff"/>
    <rect x="10.831" y="6.148" width="1.372" height="0.457" rx="0.182" fill="#fff"/>
  </g>
</svg>

<?xml version="1.0" encoding="UTF-8"?>
<svg xmlns="http://www.w3.org/2000/svg" viewBox="0 0 15.59 15.59">
  <defs>
    <style>
      .cls-1 {
        fill: #071f39;
      }

      .cls-1, .cls-2 {
        stroke-width: 0px;
      }

      .cls-2 {
        fill: #fff;
      }
    </style>
  </defs>
  <g id="Cirkel">
    <rect class="cls-1" x="0" y="0" width="15.59" height="15.59" rx="7.8" ry="7.8"/>
  </g>
  <g id="ICONS">
    <g>
      <path class="cls-2" d="M6.38,3.36l-2.24-.46c-.12-.03-.24.05-.27.18l-1.79,8.74c-.03.12.05.24.18.27l2.24.46c.12.03.24-.05.27-.18l1.79-8.74c.03-.12-.05-.24-.18-.27ZM4.37,10.89c-.08.37-.44.61-.81.53-.37-.08-.61-.44-.53-.81.08-.37.44-.61.81-.53.37.08.61.44.53.81ZM5.88,4.66l-.73,3.58c-.03.12-.15.2-.27.18l-1.34-.28c-.12-.03-.2-.15-.18-.27l.73-3.58c.03-.12.15-.2.27-.18l1.34.28c.12.03.2.15.18.27Z"/>
      <rect class="cls-2" x="4.67" y="4.24" width=".46" height="1.37" rx=".18" ry=".18" transform="translate(-.91 8.73) rotate(-78.42)"/>
      <rect class="cls-2" x="4.53" y="4.91" width=".46" height="1.37" rx=".18" ry=".18" transform="translate(-1.68 9.13) rotate(-78.43)"/>
      <rect class="cls-2" x="4.39" y="5.58" width=".46" height="1.37" rx=".18" ry=".18" transform="translate(-2.45 9.53) rotate(-78.42)"/>
      <path class="cls-2" d="M9.46,3.18h-2.29c-.13,0-.23.1-.23.23v8.92c0,.13.1.23.23.23h2.29c.13,0,.23-.1.23-.23V3.4c0-.13-.1-.23-.23-.23ZM8.32,11.64c-.38,0-.69-.31-.69-.69s.31-.69.69-.69.69.31.69.69-.31.69-.69.69ZM9.23,8.21c0,.13-.1.23-.23.23h-1.37c-.13,0-.23-.1-.23-.23v-3.66c0-.13.1-.23.23-.23h1.37c.13,0,.23.1.23.23v3.66Z"/>
      <rect class="cls-2" x="7.63" y="4.78" width="1.37" height=".46" rx=".18" ry=".18"/>
      <rect class="cls-2" x="7.63" y="5.46" width="1.37" height=".46" rx=".18" ry=".18"/>
      <rect class="cls-2" x="7.63" y="6.15" width="1.37" height=".46" rx=".18" ry=".18"/>
      <path class="cls-2" d="M12.66,3.18h-2.29c-.13,0-.23.1-.23.23v8.92c0,.13.1.23.23.23h2.29c.13,0,.23-.1.23-.23V3.4c0-.13-.1-.23-.23-.23ZM11.52,11.64c-.38,0-.69-.31-.69-.69s.31-.69.69-.69.69.31.69.69-.31.69-.69.69ZM12.43,8.21c0,.13-.1.23-.23.23h-1.37c-.13,0-.23-.1-.23-.23v-3.66c0-.13.1-.23.23-.23h1.37c.13,0,.23.1.23.23v3.66Z"/>
      <rect class="cls-2" x="10.84" y="4.78" width="1.37" height=".46" rx=".18" ry=".18"/>
      <rect class="cls-2" x="10.84" y="5.46" width="1.37" height=".46" rx=".18" ry=".18"/>
      <rect class="cls-2" x="10.83" y="6.15" width="1.37" height=".46" rx=".18" ry=".18"/>
    </g>
  </g>
</svg>
